X: 14980
T: General Martin Dempsey
R: strathspey
M: 4/4
K: Amixolydian
|:eAce aece|gdfd eA c/B/A|gBfA eA c/B/A|G/B/d g/d/B e/f/e d/c/B|
e<Ac<e a<ece|g/a/g f/g/f e<Ace|g/f/e f/e/d eAc<e|d/g/d G/B/d g/f/e f/e/d:|
|:aAgA fAeA|c/B/A c<e aAce|gdfd eAce|d/c/B c/B/A G<BB<d|
eAce a<Ag<A|a/g/f g/f/d eAc<e|g/d/B G/B/d f/d/A f/a/f|e/f/e d/c/B A/c/e a2:|

